X:1
T:Boure Fai Bon Dancar
M:3/8
R:Boure
K:D
L:1/8
B/2d/2ef| gg/2f/2e | gg/2f/2e | dc/2d/2B | B/2d/2ef | gg/2f/2e | gfd | e2e:|
dBc | dd/2d/2d |eef | Bee | dBc | dd/2d/2d | eef | e2e | e2e:|
